Costumes/Y-glow.svg

<?xml version="1.0" encoding="UTF-8" standalone="no"?>
<svg
   version="1.1"
   width="77.349998"
   height="82.199997"
   id="svg8"
   sodipodi:docname="Y-glow.svg"
   xmlns:inkscape="http://www.inkscape.org/namespaces/inkscape"
   xmlns:sodipodi="http://sodipodi.sourceforge.net/DTD/sodipodi-0.dtd"
   xmlns="http://www.w3.org/2000/svg"
   xmlns:svg="http://www.w3.org/2000/svg">
  <defs
     id="defs12" />
  <sodipodi:namedview
     id="namedview10"
     pagecolor="#ffffff"
     bordercolor="#000000"
     borderopacity="0.25"
     inkscape:showpageshadow="2"
     inkscape:pageopacity="0.0"
     inkscape:pagecheckerboard="0"
     inkscape:deskcolor="#d1d1d1" />
  <!-- Exported by Scratch - http://scratch.mit.edu/ -->
  <g
     id="ID0.1161401136778295">
    <g
       id="ID0.5282087507657707">
      <g
         id="ID0.07074214378371835">
        <path
           id="ID0.6677995841018856"
           fill="#00cccc"
           d="m 77.35,13.76 c 0,3.64 -1.44,7.16 -4.06,9.89 l -1.02,1.07 c -2.2,2.29 -5.31,3.53 -8.47,3.37 l -0.5,-0.02 c -1.67,3.7 -3.26,6.87 -4.8,9.59 -1.26,2.24 -2.35,4.49 -3.22,6.66 -0.15,0.36 -0.31,0.72 -0.49,1.06 -0.03,0.06 -0.08,0.16 -0.15,0.3 v 0.01 c 0.27,1.96 0.42,3.2 0.5,4.02 0.01,0.1 0.02,0.21 0.02,0.31 0.11,1.74 0.18,3.39 0.21,4.93 3.84,1.59 6.71,4.64 8,8.69 0.46,1.43 0.62,2.95 0.47,4.45 -0.14,1.37 -0.48,2.88 -1.07,4.75 -0.22,0.68 -0.5,1.33 -0.84,1.96 -2,3.66 -5.57,6.11 -9.84,6.75 -1.83,0.29 -3.86,0.36 -6.24,0.2 -1.23,-0.03 -2.23,-0.05 -2.75,-0.02 -1.21,0.09 -3.04,0.2 -5.55,0.33 -0.15,0.01 -0.3,0.01 -0.45,0.01 -0.19,0.01 -0.52,0.03 -0.98,0.05 -1.08,0.06 -1.87,0.08 -2.4,0.08 -5.96,0 -11.01,-2.88 -13.57,-7.73 -1.47,-2.72 -1.85,-5.9 -1.06,-9.03 0.03,-0.11 0.06,-0.22 0.09,-0.33 1.02,-3.59 3.65,-7.35 8.2,-9.38 v -1.67 c -0.12,-1.62 -0.27,-3.09 -0.45,-4.39 -1.27,-1.26 -2.34,-2.55 -3.23,-3.89 -2,-2.79 -4.03,-5.62 -6.08,-8.47 -0.03,-0.04 -0.05,-0.07 -0.07,-0.1 -1,-1.41 -1.89,-2.75 -2.69,-4.02 C 13.69,33.13 12.56,32.97 11.49,32.7 11.28,32.64 11.08,32.59 10.88,32.52 1.79,29.66 0.3,22.87 0.06,20.26 0.02,19.82 0,19.39 0,18.95 0,14.08 2.41,9.64 6.61,6.91 6.72,6.84 6.83,6.78 6.93,6.71 c 1.85,-1.11 3.8,-1.6 6.34,-2.03 2.05,-0.35 4.66,-0.51 8.22,-0.51 3.59,0 4.98,-0.13 5.41,-0.18 3.52,-0.42 6.47,-0.43 9.1,-0.07 0.08,0.01 0.17,0.02 0.25,0.04 1.7,-1.32 3.67,-2.22 5.78,-2.6 C 42.21,1.33 42.39,1.3 42.57,1.27 46.04,0.82 50.38,0.53 55.82,0.4 l 3.89,-0.33 c 0.05,0 0.09,0 0.14,-0.01 C 60.48,0.02 61.1,0 61.68,0 c 2.51,0 4.83,0.4 6.92,1.18 5.41,2.05 8.75,6.87 8.75,12.58 z" />
      </g>
    </g>
    <g
       id="ID0.1173640750348568">
      <path
         id="ID0.7870067665353417"
         fill="#ffffff"
         d="m 65.339,16.05 c -0.675,0.704 -1.012,1.056 -1.012,1.056 0,0 -1.202,-0.058 -3.606,-0.176 -0.118,0 -1.495,0.059 -4.134,0.176 -0.411,0.176 -0.792,0.646 -1.144,1.407 -2.347,5.63 -4.517,10.204 -6.51,13.722 -1.525,2.698 -2.814,5.366 -3.87,8.005 -0.527,0.998 -1.114,2.375 -1.759,4.134 0,0.411 0.146,1.35 0.439,2.815 0.233,1.701 0.381,2.873 0.439,3.518 0.176,2.815 0.234,5.309 0.176,7.478 -0.059,1.701 -0.029,3.577 0.089,5.629 0.058,0.411 0.292,0.675 0.703,0.792 1.056,0.06 2.58,0.118 4.574,0.176 1.7,0.176 2.756,0.91 3.167,2.199 -0.06,0.587 -0.265,1.438 -0.616,2.551 -0.352,0.645 -0.968,1.025 -1.847,1.144 -1.056,0.176 -2.405,0.205 -4.047,0.088 -2.053,-0.06 -3.431,-0.06 -4.134,0 -1.115,0.082 -2.874,0.188 -5.278,0.314 -0.176,0 -0.659,0.021 -1.451,0.063 -0.791,0.04 -1.394,0.062 -1.803,0.062 -1.936,0 -3.226,-0.646 -3.87,-1.935 -0.176,-0.293 -0.206,-0.674 -0.088,-1.144 0.585,-2.052 2.521,-3.02 5.805,-2.903 0.41,0 0.821,0 1.231,0 0.586,0.119 1.041,0.06 1.363,-0.174 0.322,-0.234 0.513,-0.759 0.572,-1.578 0.058,-0.583 0.058,-1.372 0,-2.365 -0.06,-1.227 -0.088,-1.912 -0.088,-2.058 0,-0.146 -0.044,-0.613 -0.132,-1.402 -0.088,-0.788 -0.132,-1.329 -0.132,-1.621 0,-2.104 0,-2.891 0,-2.365 -0.293,-4.03 -0.731,-7.33 -1.315,-9.9 -0.234,-0.115 -0.556,-0.32 -0.965,-0.612 -1.463,-1.227 -2.573,-2.425 -3.332,-3.593 -2.046,-2.861 -4.121,-5.752 -6.225,-8.673 -2.63,-3.738 -4.414,-6.805 -5.349,-9.198 -0.526,-0.058 -1.375,0 -2.543,0.176 -1.344,0.235 -2.309,0.352 -2.893,0.352 -0.586,0 -1.11,-0.058 -1.578,-0.176 -2.047,-0.645 -3.1,-1.553 -3.157,-2.727 -0.118,-1.349 0.41,-2.404 1.584,-3.167 0.292,-0.176 1.128,-0.381 2.507,-0.615 1.377,-0.233 3.503,-0.353 6.377,-0.353 3.107,0 5.365,-0.088 6.772,-0.264 2.463,-0.293 4.544,-0.321 6.245,-0.088 0.88,0.176 1.408,0.675 1.584,1.495 0.352,1.818 -0.528,3.021 -2.639,3.606 -0.88,0.295 -2.698,0.499 -5.454,0.616 0,0.587 -0.03,0.821 -0.088,0.703 1.289,2.874 2.492,5.073 3.606,6.598 0.762,1.056 2.169,2.786 4.222,5.189 0.762,1.174 2.023,2.698 3.783,4.574 0.761,-0.997 1.699,-2.639 2.814,-4.926 1.289,-2.756 2.199,-4.604 2.727,-5.542 1.173,-1.876 2.696,-5.071 4.574,-9.588 l -0.176,-0.176 c -3.694,0.235 -5.938,0.176 -6.729,-0.176 -0.791,-0.352 -1.188,-0.938 -1.188,-1.759 0,-0.704 0.249,-1.393 0.748,-2.067 0.497,-0.674 1.069,-1.069 1.715,-1.188 3.107,-0.409 7.242,-0.674 12.403,-0.792 1.407,-0.116 2.814,-0.233 4.222,-0.352 1.641,-0.117 3.004,0.03 4.09,0.439 1.085,0.411 1.628,1.174 1.628,2.287 0.005,0.824 -0.334,1.585 -1.007,2.289 z" />
    </g>
  </g>
</svg>

<svg version="1.1" width="78" height="83" xmlns="http://www.w3.org/2000/svg" xmlns:xlink="http://www.w3.org/1999/xlink">
  <!-- Exported by Scratch - http://scratch.mit.edu/ -->
  <g id="ID0.1161401136778295">
    <g id="ID0.5282087507657707">
      <g id="ID0.07074214378371835">
        <path id="ID0.6677995841018856" fill="#00CCCC" d="M 77.350 13.760 C 77.350 17.400 75.910 20.920 73.290 23.650 L 72.270 24.720 C 70.070 27.010 66.960 28.250 63.800 28.090 L 63.300 28.070 C 61.630 31.770 60.040 34.940 58.500 37.660 C 57.240 39.900 56.150 42.150 55.280 44.320 C 55.130 44.680 54.970 45.040 54.790 45.380 C 54.760 45.440 54.710 45.540 54.640 45.680 L 54.640 45.690 C 54.910 47.650 55.060 48.890 55.140 49.710 C 55.150 49.810 55.160 49.920 55.160 50.020 C 55.270 51.760 55.340 53.410 55.370 54.950 C 59.210 56.540 62.080 59.590 63.370 63.640 C 63.830 65.070 63.990 66.590 63.840 68.090 C 63.700 69.460 63.360 70.970 62.770 72.840 C 62.550 73.520 62.270 74.170 61.930 74.800 C 59.930 78.460 56.360 80.910 52.090 81.550 C 50.260 81.840 48.230 81.910 45.850 81.750 C 44.620 81.720 43.620 81.700 43.100 81.730 C 41.890 81.820 40.060 81.930 37.550 82.060 C 37.400 82.070 37.250 82.070 37.100 82.070 C 36.910 82.080 36.580 82.100 36.120 82.120 C 35.040 82.180 34.250 82.200 33.720 82.200 C 27.760 82.200 22.710 79.320 20.150 74.470 C 18.680 71.750 18.300 68.570 19.090 65.440 C 19.120 65.330 19.150 65.220 19.180 65.110 C 20.200 61.520 22.830 57.760 27.380 55.730 L 27.380 54.060 C 27.260 52.440 27.110 50.970 26.930 49.670 C 25.660 48.410 24.590 47.120 23.700 45.780 C 21.700 42.990 19.670 40.160 17.620 37.310 C 17.590 37.270 17.570 37.240 17.550 37.210 C 16.550 35.800 15.660 34.460 14.860 33.190 C 13.690 33.130 12.560 32.970 11.490 32.700 C 11.280 32.640 11.080 32.590 10.880 32.520 C 1.790 29.660 0.300 22.870 0.060 20.260 C 0.020 19.820 0 19.390 0 18.950 C 0 14.080 2.410 9.640 6.610 6.910 C 6.720 6.840 6.830 6.780 6.930 6.710 C 8.780 5.600 10.730 5.110 13.270 4.680 C 15.320 4.330 17.930 4.170 21.490 4.170 C 25.080 4.170 26.470 4.040 26.900 3.990 C 30.420 3.570 33.370 3.560 36 3.920 C 36.080 3.930 36.170 3.940 36.250 3.960 C 37.950 2.640 39.920 1.740 42.030 1.360 C 42.210 1.330 42.390 1.300 42.570 1.270 C 46.040 0.820 50.380 0.530 55.820 0.400 L 59.710 0.070 C 59.760 0.070 59.800 0.070 59.850 0.060 C 60.480 0.020 61.100 0 61.680 0 C 64.190 0 66.510 0.400 68.600 1.180 C 74.010 3.230 77.350 8.050 77.350 13.760 Z "/>
      </g>
    </g>
    <g id="ID0.1173640750348568">
      <path id="ID0.7870067665353417" fill="#FFFFFF" d="M 65.339 16.050 C 64.664 16.754 64.327 17.106 64.327 17.106 C 64.327 17.106 63.125 17.048 60.721 16.930 C 60.603 16.930 59.226 16.989 56.587 17.106 C 56.176 17.282 55.795 17.752 55.443 18.513 C 53.096 24.143 50.926 28.717 48.933 32.235 C 47.408 34.933 46.119 37.601 45.063 40.240 C 44.536 41.238 43.949 42.615 43.304 44.374 C 43.304 44.785 43.450 45.724 43.743 47.189 C 43.976 48.890 44.124 50.062 44.182 50.707 C 44.358 53.522 44.416 56.016 44.358 58.185 C 44.299 59.886 44.329 61.762 44.447 63.814 C 44.505 64.225 44.739 64.489 45.150 64.606 C 46.206 64.666 47.730 64.724 49.724 64.782 C 51.424 64.958 52.480 65.692 52.891 66.981 C 52.831 67.568 52.626 68.419 52.275 69.532 C 51.923 70.177 51.307 70.557 50.428 70.676 C 49.372 70.852 48.023 70.881 46.381 70.764 C 44.328 70.704 42.950 70.704 42.247 70.764 C 41.132 70.846 39.373 70.952 36.969 71.078 C 36.793 71.078 36.310 71.099 35.518 71.141 C 34.727 71.181 34.124 71.203 33.715 71.203 C 31.779 71.203 30.489 70.557 29.845 69.268 C 29.669 68.975 29.639 68.594 29.757 68.124 C 30.342 66.072 32.278 65.104 35.562 65.221 C 35.972 65.221 36.383 65.221 36.793 65.221 C 37.379 65.340 37.834 65.281 38.156 65.047 C 38.478 64.813 38.669 64.288 38.728 63.469 C 38.786 62.886 38.786 62.097 38.728 61.104 C 38.668 59.877 38.640 59.192 38.640 59.046 C 38.640 58.900 38.596 58.433 38.508 57.644 C 38.420 56.856 38.376 56.315 38.376 56.023 C 38.376 53.919 38.376 53.132 38.376 53.658 C 38.083 49.628 37.645 46.328 37.061 43.758 C 36.827 43.643 36.505 43.438 36.096 43.146 C 34.633 41.919 33.523 40.721 32.764 39.553 C 30.718 36.692 28.643 33.801 26.539 30.880 C 23.909 27.142 22.125 24.075 21.190 21.682 C 20.664 21.624 19.815 21.682 18.647 21.858 C 17.303 22.093 16.338 22.210 15.754 22.210 C 15.168 22.210 14.644 22.152 14.176 22.034 C 12.129 21.389 11.076 20.481 11.019 19.307 C 10.901 17.958 11.429 16.903 12.603 16.140 C 12.895 15.964 13.731 15.759 15.110 15.525 C 16.487 15.292 18.613 15.172 21.487 15.172 C 24.594 15.172 26.852 15.084 28.259 14.908 C 30.722 14.615 32.803 14.587 34.504 14.820 C 35.384 14.996 35.912 15.495 36.088 16.315 C 36.440 18.133 35.560 19.336 33.449 19.921 C 32.569 20.216 30.751 20.420 27.995 20.537 C 27.995 21.124 27.965 21.358 27.907 21.240 C 29.196 24.114 30.399 26.313 31.513 27.838 C 32.275 28.894 33.682 30.624 35.735 33.027 C 36.497 34.201 37.758 35.725 39.518 37.601 C 40.279 36.604 41.217 34.962 42.332 32.675 C 43.621 29.919 44.531 28.071 45.059 27.133 C 46.232 25.257 47.755 22.062 49.633 17.545 L 49.457 17.369 C 45.763 17.604 43.519 17.545 42.728 17.193 C 41.937 16.841 41.540 16.255 41.540 15.434 C 41.540 14.730 41.789 14.041 42.288 13.367 C 42.785 12.693 43.357 12.298 44.003 12.179 C 47.110 11.770 51.245 11.505 56.406 11.387 C 57.813 11.271 59.220 11.154 60.628 11.035 C 62.269 10.918 63.632 11.065 64.718 11.474 C 65.803 11.885 66.346 12.648 66.346 13.761 C 66.351 14.585 66.012 15.346 65.339 16.050 Z "/>
    </g>
  </g>
</svg>
